X:1
T:Heavenly Music, 11.11.12.11
T:Heavenly Music, 11.11.12.11
T:Hymns and Tunes, 1886
T:Public Domain Courtesy of the Cyber Hymnal™
C:Hymns and Tunes, 1886
Z:Public Domain
Z:Courtesy of the Cyber Hymnal™
%%score ( 1 2 ) ( 3 4 )
L:1/8
Q:1/4=110
M:3/4
K:F
V:1 treble 
V:2 treble 
V:3 bass 
V:4 bass 
V:1
 (FG) | [FA]2 [FA]2 (BA) | ([FA][EG]) [EG]2 ([FA][EG]) | [DF]2 [DG]2 [CE]2 | (F2 C2) (FG) | %5
 [FA]2 [FA]2 (BA) | ([FA][EG]) [EG]2 ([FA][EG]) | (FA) (GB) (EG) | [CF]4 [CE][CF] | %9
 [EG]2 [EG]2 (F[EG]) | [FA]2 [FA]2 (G[^FA]) | [GB]2 [GB]2 AB | c4 (FG) | [FA]2 [FA]2 (BA) | %14
 ([FA][EG]) [EG]2 ([FA][EG]) | (FA) (GB) (EG) | [CF]4 |] %17
V:2
 F2 | x4 F2 | x6 | x6 | C4 C2 | x4 F2 | x6 | D2 D2 C2 | x6 | x4 F x | x4 G x | x4 F2 | (F2 E2) C2 | %13
 x4 F2 | x6 | D2 D2 C2 | x4 |] %17
V:3
 (A,B,) | [F,C]2 [F,C]2 (DC) | [C,C]2 [C,C]2 (CB,) | [D,A,]2 [B,,B,]2 [C,G,]2 | [F,A,]4 (A,B,) | %5
 [F,C]2 [F,C]2 (DC) | [C,C]2 [C,C]2 (CB,) | (A,F,) [B,,B,]2 (G,B,) | [F,A,]4 [C,G,][C,A,] | %9
 [C,C]2 [C,C]2 (A,C) | [F,C]2 [F,C]2 D2 | [G,D]2 [G,D]2 [D,B,]2 | (A,2 G,2) (A,B,) | %13
 [F,C]2 [F,C]2 (DC) | [C,C]2 [C,C]2 (CB,) | (A,F,) [B,,B,]2 (G,B,) | [F,,F,A,]4 |] %17
V:4
 F,2 | x4 F,2 | x4 C,2 | x6 | x4 F,2 | x4 F,2 | x4 C,2 | D,2 x C,2 x | x6 | x4 C,2 | x4 (B,A,) | %11
 x6 | C,4 F,2 | x4 F,2 | x4 C,2 | D,2 x C,2 x | x4 |] %17

